X: 10992
T: COTILLION No. 15. tune 4
C:
%R: reel
B: Elias Howe "The Musician's Companion" Part 1 1842 p.99 #2
S: http://imslp.org/wiki/The_Musician's_Companion_(Howe,_Elias)
Z: 2015 John Chambers <jc:trillian.mit.edu>
M: 2/4
L: 1/16
K: G
% - - - - - - - - - - - - - - - - - - - - - - - - -
d2 |\
(^cd.e.d) (fg.a.g) | (b4 g2)g2 | a2a2 (agab) | g2(bg) d2d2 |\
(^cd).e.d (fg).a.g | (b4 g2)g2 | a2a2 agab | g2b2g2 H|]
(gf) !f!|\
(e^d).e.f (gf).g.e | .f2.b2.f2.b2 | (e^d).e.f (gf).g.e | .f2.B2.^d2.B2 |\
(e^d).e.f (gf).g.e | .f2.b2.f2.b2 | (ag).f.e (^dB).^c.d | (f4 "^D.C."e2) |]
!p!(BA) |\
G2(Bc) .d2.g2 | .B2.c2.d2 (gb) | a2a2 (agab) | .a.g.f.e .d.c.B.A |\
G2(Bc) d2g2 | B2c2d2 (gb) | a2a2 (gfef) | g2b2"^D.C."g2 |]
% - - - - - - - - - - Dance description - - - - - - - - - -
%%begintext align
%% First 4 lead to right,
%% chassa out and form lines across the hall,
%% all chassa in lines,
%% all chain across the hall,
%% all forward and back,
%% swing partners to place,
%% side couples perform the same.
%%endtext
%- - - - - - - - - - - - - - - - - - - - - - - - -
%%sep 1 1 300


